X: 1
T: The Braes of Tulliemet [Am]
T: The Braes of Tullymet
R: strathspey
B: Neil Stewart 1761
B: RSCDS 2-10b
Z: John Chambers <jc:trillian.mit.edu>
M: 4/4
L: 1/8
K: Ador
B \
| "Am"A<e e>d e>d e<g | "G"B<G d>G e>G d>B \
| "Am"A<e e>d e>d e<a | "Em"g>e d>B "Am"A/A/A A :|
e \
| "Am"a>e a<c' a>e a<c' | "G"g>d g<b g>d g<b \
| "Am"a>e a<c' a>e a<c' | "Em"g>e d>B "Am"A/A/A A |]
e \
| "Am"a>e a<c' a>e a<c' | "G"g>d g<b g>d g<b \
| "Am"a<e e>f "G"g>a b>a | "Em"g>e d>B "Am"A/A/A A |]
%%center Book02/BraesOfTulliemetS_Am-JC.abc

%%sep 1 1 500
%%sep 1 1 500

